static/img/kroki/f8c5acc1c107e254d758f34b55718f21.svg

<?xml version="1.0" encoding="us-ascii" standalone="no"?><svg xmlns="http://www.w3.org/2000/svg" xmlns:xlink="http://www.w3.org/1999/xlink" contentStyleType="text/css" height="352px" preserveAspectRatio="none" style="width:1008px;height:352px;" version="1.1" viewBox="0 0 1008 352" width="1008px" zoomAndPan="magnify"><defs/><g><!--class aws_bedrock_custom_model--><g id="elem_aws_bedrock_custom_model"><rect codeLine="23" fill="#3D176E" height="39.7891" id="aws_bedrock_custom_model" rx="2.5" ry="2.5" style="stroke:#000D19;stroke-width:0.5;" width="280" x="721.46" y="106.79"/><ellipse cx="736.46" cy="126.6845" fill="#ADD1B2" rx="11" ry="11" style="stroke:#181818;stroke-width:1.0;"/><path d="M739.4287,132.3252 Q738.8506,132.622 738.21,132.7627 Q737.5694,132.9189 736.8662,132.9189 Q734.3662,132.9189 733.0381,131.2783 Q731.7256,129.622 731.7256,126.497 Q731.7256,123.372 733.0381,121.7158 Q734.3662,120.0595 736.8662,120.0595 Q737.5694,120.0595 738.21,120.2158 Q738.8662,120.372 739.4287,120.6689 L739.4287,123.3877 Q738.8037,122.8095 738.21,122.5439 Q737.6162,122.2627 736.9912,122.2627 Q735.6475,122.2627 734.96,123.3408 Q734.2725,124.4033 734.2725,126.497 Q734.2725,128.5908 734.96,129.6689 Q735.6475,130.7314 736.9912,130.7314 Q737.6162,130.7314 738.21,130.4658 Q738.8037,130.1845 739.4287,129.6064 L739.4287,132.3252 Z " fill="#000000"/><text fill="#D9B8FF" font-family="Helvetica" font-size="17" lengthAdjust="spacing" textLength="238" x="755.46" y="132.5698">aws_bedrock_custom_model</text></g><!--class aws_bedrock_foundation_model--><g id="elem_aws_bedrock_foundation_model"><rect codeLine="26" fill="#3D176E" height="39.7891" id="aws_bedrock_foundation_model" rx="2.5" ry="2.5" style="stroke:#000D19;stroke-width:0.5;" width="310" x="266.46" y="7"/><ellipse cx="281.46" cy="26.8945" fill="#ADD1B2" rx="11" ry="11" style="stroke:#181818;stroke-width:1.0;"/><path d="M284.4288,32.5352 Q283.8506,32.832 283.21,32.9727 Q282.5694,33.1289 281.8663,33.1289 Q279.3663,33.1289 278.0381,31.4883 Q276.7256,29.832 276.7256,26.707 Q276.7256,23.582 278.0381,21.9258 Q279.3663,20.2695 281.8663,20.2695 Q282.5694,20.2695 283.21,20.4258 Q283.8663,20.582 284.4288,20.8789 L284.4288,23.5977 Q283.8038,23.0195 283.21,22.7539 Q282.6163,22.4727 281.9913,22.4727 Q280.6475,22.4727 279.96,23.5508 Q279.2725,24.6133 279.2725,26.707 Q279.2725,28.8008 279.96,29.8789 Q280.6475,30.9414 281.9913,30.9414 Q282.6163,30.9414 283.21,30.6758 Q283.8038,30.3945 284.4288,29.8164 L284.4288,32.5352 Z " fill="#000000"/><text fill="#D9B8FF" font-family="Helvetica" font-size="17" lengthAdjust="spacing" textLength="268" x="300.46" y="32.7798">aws_bedrock_foundation_model</text></g><!--class aws_bedrock_model_customization_job--><g id="elem_aws_bedrock_model_customization_job"><rect codeLine="29" fill="#3D176E" height="39.7891" id="aws_bedrock_model_customization_job" rx="2.5" ry="2.5" style="stroke:#000D19;stroke-width:0.5;" width="370" x="320.46" y="206.58"/><ellipse cx="335.46" cy="226.4745" fill="#ADD1B2" rx="11" ry="11" style="stroke:#181818;stroke-width:1.0;"/><path d="M338.4288,232.1152 Q337.8506,232.412 337.21,232.5527 Q336.5694,232.7089 335.8663,232.7089 Q333.3663,232.7089 332.0381,231.0683 Q330.7256,229.412 330.7256,226.287 Q330.7256,223.162 332.0381,221.5058 Q333.3663,219.8495 335.8663,219.8495 Q336.5694,219.8495 337.21,220.0058 Q337.8663,220.162 338.4288,220.4589 L338.4288,223.1777 Q337.8038,222.5995 337.21,222.3339 Q336.6163,222.0527 335.9913,222.0527 Q334.6475,222.0527 333.96,223.1308 Q333.2725,224.1933 333.2725,226.287 Q333.2725,228.3808 333.96,229.4589 Q334.6475,230.5214 335.9913,230.5214 Q336.6163,230.5214 337.21,230.2558 Q337.8038,229.9745 338.4288,229.3964 L338.4288,232.1152 Z " fill="#000000"/><text fill="#D9B8FF" font-family="Helvetica" font-size="17" lengthAdjust="spacing" textLength="328" x="354.46" y="232.3598">aws_bedrock_model_customization_job</text></g><!--class aws_ec2_security_group--><g id="elem_aws_ec2_security_group"><rect codeLine="32" fill="#3D176E" height="39.7891" id="aws_ec2_security_group" rx="2.5" ry="2.5" style="stroke:#000D19;stroke-width:0.5;" width="245" x="34.96" y="106.79"/><ellipse cx="49.96" cy="126.6845" fill="#ADD1B2" rx="11" ry="11" style="stroke:#181818;stroke-width:1.0;"/><path d="M52.9288,132.3252 Q52.3506,132.622 51.71,132.7627 Q51.0694,132.9189 50.3663,132.9189 Q47.8663,132.9189 46.5381,131.2783 Q45.2256,129.622 45.2256,126.497 Q45.2256,123.372 46.5381,121.7158 Q47.8663,120.0595 50.3663,120.0595 Q51.0694,120.0595 51.71,120.2158 Q52.3663,120.372 52.9288,120.6689 L52.9288,123.3877 Q52.3038,122.8095 51.71,122.5439 Q51.1163,122.2627 50.4913,122.2627 Q49.1475,122.2627 48.46,123.3408 Q47.7725,124.4033 47.7725,126.497 Q47.7725,128.5908 48.46,129.6689 Q49.1475,130.7314 50.4913,130.7314 Q51.1163,130.7314 51.71,130.4658 Q52.3038,130.1845 52.9288,129.6064 L52.9288,132.3252 Z " fill="#000000"/><text fill="#D9B8FF" font-family="Helvetica" font-size="17" lengthAdjust="spacing" textLength="203" x="68.96" y="132.5698">aws_ec2_security_group</text></g><!--class aws_ec2_subnet--><g id="elem_aws_ec2_subnet"><rect codeLine="35" fill="#3D176E" height="39.7891" id="aws_ec2_subnet" rx="2.5" ry="2.5" style="stroke:#000D19;stroke-width:0.5;" width="179" x="314.96" y="106.79"/><ellipse cx="329.96" cy="126.6845" fill="#ADD1B2" rx="11" ry="11" style="stroke:#181818;stroke-width:1.0;"/><path d="M332.9288,132.3252 Q332.3506,132.622 331.71,132.7627 Q331.0694,132.9189 330.3663,132.9189 Q327.8663,132.9189 326.5381,131.2783 Q325.2256,129.622 325.2256,126.497 Q325.2256,123.372 326.5381,121.7158 Q327.8663,120.0595 330.3663,120.0595 Q331.0694,120.0595 331.71,120.2158 Q332.3663,120.372 332.9288,120.6689 L332.9288,123.3877 Q332.3038,122.8095 331.71,122.5439 Q331.1163,122.2627 330.4913,122.2627 Q329.1475,122.2627 328.46,123.3408 Q327.7725,124.4033 327.7725,126.497 Q327.7725,128.5908 328.46,129.6689 Q329.1475,130.7314 330.4913,130.7314 Q331.1163,130.7314 331.71,130.4658 Q332.3038,130.1845 332.9288,129.6064 L332.9288,132.3252 Z " fill="#000000"/><text fill="#D9B8FF" font-family="Helvetica" font-size="17" lengthAdjust="spacing" textLength="137" x="348.96" y="132.5698">aws_ec2_subnet</text></g><!--class aws_iam_role--><g id="elem_aws_iam_role"><rect codeLine="38" fill="#3D176E" height="39.7891" id="aws_iam_role" rx="2.5" ry="2.5" style="stroke:#000D19;stroke-width:0.5;" width="157" x="528.96" y="106.79"/><ellipse cx="543.96" cy="126.6845" fill="#ADD1B2" rx="11" ry="11" style="stroke:#181818;stroke-width:1.0;"/><path d="M546.9287,132.3252 Q546.3506,132.622 545.71,132.7627 Q545.0694,132.9189 544.3662,132.9189 Q541.8662,132.9189 540.5381,131.2783 Q539.2256,129.622 539.2256,126.497 Q539.2256,123.372 540.5381,121.7158 Q541.8662,120.0595 544.3662,120.0595 Q545.0694,120.0595 545.71,120.2158 Q546.3662,120.372 546.9287,120.6689 L546.9287,123.3877 Q546.3037,122.8095 545.71,122.5439 Q545.1162,122.2627 544.4912,122.2627 Q543.1475,122.2627 542.46,123.3408 Q541.7725,124.4033 541.7725,126.497 Q541.7725,128.5908 542.46,129.6689 Q543.1475,130.7314 544.4912,130.7314 Q545.1162,130.7314 545.71,130.4658 Q546.3037,130.1845 546.9287,129.6064 L546.9287,132.3252 Z " fill="#000000"/><text fill="#D9B8FF" font-family="Helvetica" font-size="17" lengthAdjust="spacing" textLength="115" x="562.96" y="132.5698">aws_iam_role</text></g><!--class aws_kms_key--><g id="elem_aws_kms_key"><rect codeLine="41" fill="#3D176E" height="39.7891" id="aws_kms_key" rx="2.5" ry="2.5" style="stroke:#000D19;stroke-width:0.5;" width="158" x="644.46" y="306.37"/><ellipse cx="659.46" cy="326.2645" fill="#ADD1B2" rx="11" ry="11" style="stroke:#181818;stroke-width:1.0;"/><path d="M662.4287,331.9052 Q661.8506,332.202 661.21,332.3427 Q660.5694,332.4989 659.8662,332.4989 Q657.3662,332.4989 656.0381,330.8583 Q654.7256,329.202 654.7256,326.077 Q654.7256,322.952 656.0381,321.2958 Q657.3662,319.6395 659.8662,319.6395 Q660.5694,319.6395 661.21,319.7958 Q661.8662,319.952 662.4287,320.2489 L662.4287,322.9677 Q661.8037,322.3895 661.21,322.1239 Q660.6162,321.8427 659.9912,321.8427 Q658.6475,321.8427 657.96,322.9208 Q657.2725,323.9833 657.2725,326.077 Q657.2725,328.1708 657.96,329.2489 Q658.6475,330.3114 659.9912,330.3114 Q660.6162,330.3114 661.21,330.0458 Q661.8037,329.7645 662.4287,329.1864 L662.4287,331.9052 Z " fill="#000000"/><text fill="#D9B8FF" font-family="Helvetica" font-size="17" lengthAdjust="spacing" textLength="116" x="678.46" y="332.1498">aws_kms_key</text></g><!--class aws_s3_bucket--><g id="elem_aws_s3_bucket"><rect codeLine="44" fill="#3D176E" height="39.7891" id="aws_s3_bucket" rx="2.5" ry="2.5" style="stroke:#000D19;stroke-width:0.5;" width="168" x="421.46" y="306.37"/><ellipse cx="436.46" cy="326.2645" fill="#ADD1B2" rx="11" ry="11" style="stroke:#181818;stroke-width:1.0;"/><path d="M439.4288,331.9052 Q438.8506,332.202 438.21,332.3427 Q437.5694,332.4989 436.8663,332.4989 Q434.3663,332.4989 433.0381,330.8583 Q431.7256,329.202 431.7256,326.077 Q431.7256,322.952 433.0381,321.2958 Q434.3663,319.6395 436.8663,319.6395 Q437.5694,319.6395 438.21,319.7958 Q438.8663,319.952 439.4288,320.2489 L439.4288,322.9677 Q438.8038,322.3895 438.21,322.1239 Q437.6163,321.8427 436.9913,321.8427 Q435.6475,321.8427 434.96,322.9208 Q434.2725,323.9833 434.2725,326.077 Q434.2725,328.1708 434.96,329.2489 Q435.6475,330.3114 436.9913,330.3114 Q437.6163,330.3114 438.21,330.0458 Q438.8038,329.7645 439.4288,329.1864 L439.4288,331.9052 Z " fill="#000000"/><text fill="#D9B8FF" font-family="Helvetica" font-size="17" lengthAdjust="spacing" textLength="126" x="455.46" y="332.1498">aws_s3_bucket</text></g><!--link aws_bedrock_custom_model to aws_bedrock_model_customization_job--><g id="link_aws_bedrock_custom_model_aws_bedrock_model_customization_job"><path codeLine="47" d="M791.12,147.01 C728.81,164.12 644.0957,187.3907 581.7357,204.5207 " fill="none" id="aws_bedrock_custom_model-to-aws_bedrock_model_customization_job" style="stroke:#1A83AF;stroke-width:2.0;"/><polygon fill="#1A83AF" points="575.95,206.11,585.6881,207.5832,580.7714,204.7856,583.569,199.8689,575.95,206.11" style="stroke:#1A83AF;stroke-width:2.0;"/></g><!--link aws_bedrock_custom_model to aws_kms_key--><g id="link_aws_bedrock_custom_model_aws_kms_key"><path codeLine="48" d="M847.98,146.99 C821.59,184.76 766.8554,263.1309 740.4354,300.9609 " fill="none" id="aws_bedrock_custom_model-to-aws_kms_key" style="stroke:#1A83AF;stroke-width:2.0;"/><polygon fill="#1A83AF" points="737,305.88,745.4326,300.7916,739.8629,301.7807,738.8738,296.211,737,305.88" style="stroke:#1A83AF;stroke-width:2.0;"/></g><!--link aws_bedrock_foundation_model to aws_bedrock_custom_model--><g id="link_aws_bedrock_foundation_model_aws_bedrock_custom_model"><path codeLine="49" d="M508.65,47.28 C585.69,64.4 691.5929,87.9383 768.5829,105.0483 " fill="none" id="aws_bedrock_foundation_model-to-aws_bedrock_custom_model" style="stroke:#1A83AF;stroke-width:2.0;"/><polygon fill="#1A83AF" points="774.44,106.35,766.5221,100.4928,769.5591,105.2653,764.7866,108.3022,774.44,106.35" style="stroke:#1A83AF;stroke-width:2.0;"/></g><!--link aws_bedrock_foundation_model to aws_bedrock_model_customization_job--><g id="link_aws_bedrock_foundation_model_aws_bedrock_model_customization_job"><path codeLine="50" d="M266.03,38.17 C166.05,48.38 49.12,68.35 17.46,106.79 C6.22,120.44 6,133.12 17.46,146.58 C56.44,192.37 192.9634,211.2698 313.9934,219.3598 " fill="none" id="aws_bedrock_foundation_model-to-aws_bedrock_model_customization_job" style="stroke:#1A83AF;stroke-width:2.0;"/><polygon fill="#1A83AF" points="319.98,219.76,311.2668,215.1687,314.9911,219.4265,310.7333,223.1508,319.98,219.76" style="stroke:#1A83AF;stroke-width:2.0;"/></g><!--link aws_bedrock_model_customization_job to aws_kms_key--><g id="link_aws_bedrock_model_customization_job_aws_kms_key"><path codeLine="51" d="M548.53,246.8 C586.75,263.94 636.816,286.3932 675.006,303.5332 " fill="none" id="aws_bedrock_model_customization_job-to-aws_kms_key" style="stroke:#1A83AF;stroke-width:2.0;"/><polygon fill="#1A83AF" points="680.48,305.99,673.9069,298.6555,675.9184,303.9427,670.6312,305.9542,680.48,305.99" style="stroke:#1A83AF;stroke-width:2.0;"/></g><!--link aws_bedrock_model_customization_job to aws_s3_bucket--><g id="link_aws_bedrock_model_customization_job_aws_s3_bucket"><path codeLine="52" d="M505.46,246.8 C505.46,263.94 505.46,282.85 505.46,299.99 " fill="none" id="aws_bedrock_model_customization_job-to-aws_s3_bucket" style="stroke:#1A83AF;stroke-width:2.0;"/><polygon fill="#1A83AF" points="505.46,305.99,509.46,296.99,505.46,300.99,501.46,296.99,505.46,305.99" style="stroke:#1A83AF;stroke-width:2.0;"/></g><!--link aws_ec2_security_group to aws_bedrock_model_customization_job--><g id="link_aws_ec2_security_group_aws_bedrock_model_customization_job"><path codeLine="53" d="M226.21,147.01 C287.12,164.12 369.8137,187.3568 430.7737,204.4868 " fill="none" id="aws_ec2_security_group-to-aws_bedrock_model_customization_job" style="stroke:#1A83AF;stroke-width:2.0;"/><polygon fill="#1A83AF" points="436.55,206.11,428.9677,199.8244,431.7364,204.7574,426.8035,207.5261,436.55,206.11" style="stroke:#1A83AF;stroke-width:2.0;"/></g><!--link aws_ec2_subnet to aws_bedrock_model_customization_job--><g id="link_aws_ec2_subnet_aws_bedrock_model_customization_job"><path codeLine="54" d="M424.41,147.01 C442.12,164.15 463.5397,184.8861 481.2397,202.0261 " fill="none" id="aws_ec2_subnet-to-aws_bedrock_model_customization_job" style="stroke:#1A83AF;stroke-width:2.0;"/><polygon fill="#1A83AF" points="485.55,206.2,481.8672,197.0656,481.9581,202.7217,476.302,202.8127,485.55,206.2" style="stroke:#1A83AF;stroke-width:2.0;"/></g><!--link aws_iam_role to aws_bedrock_model_customization_job--><g id="link_aws_iam_role_aws_bedrock_model_customization_job"><path codeLine="55" d="M587.31,147.01 C569.42,164.15 547.7702,184.9067 529.9002,202.0467 " fill="none" id="aws_iam_role-to-aws_bedrock_model_customization_job" style="stroke:#1A83AF;stroke-width:2.0;"/><polygon fill="#1A83AF" points="525.57,206.2,534.8341,202.8569,529.1785,202.7389,529.2964,197.0833,525.57,206.2" style="stroke:#1A83AF;stroke-width:2.0;"/></g><!--SRC=[dPB1Qy8m5CRl_Ii2dWMrREfbq0coNMJCtSOeQVAYMPka9EcaZltli-eaIssj7d9vx_U-ztr9rfm20f7R4WaG2MWJc9JB76iiKAIrsinKfZJgCOPPEFQRSoNjHM211Q0doBx0Se9zuctDIIh163HoMe-Of2kj2aaFybPZQNOjaDQXPXas9h9MywImu9YXqsJ2c4_wehsG3iVtKCEKfg2Fo60meCEfZrnSrPhxH2pv5j3GlRI5ib2pMLknfrfTLeHZiXRqhz_eyGLJokKAtJcrruCdBK7_go_NcAfDHJES6NUDiQ11sJA7MIqLJ2UKZS_2pqrmGAghGtXZuWIeLYIDIM6i4h5G53Bq7GG_PnXMAM7BbMpdzisZ8jyU1ZvLukD0Hh41KcXkoxYocPybYaI2zJiSYrYh3FnwAdO7IhzimZWfIFgdqnYy_zuRHfCmcd_q7xf4kaBfw2nelT36_QxsZH9T8ZIzNASqdOTFhn4qV8ERCZYVvQRvqvUwUleN]--></g></svg>

<svg xmlns="http://www.w3.org/2000/svg" width="1008" height="352" viewBox="0 0 1008 352"><rect width="280" height="39.789" x="721.46" y="106.79" fill="#3D176E" rx="2.5" ry="2.5" style="stroke:#000d19;stroke-width:.5"/><circle cx="736.46" cy="126.684" r="11" fill="#ADD1B2" style="stroke:#181818;stroke-width:1"/><path d="M739.429 132.325q-.578.297-1.219.438-.64.156-1.344.156-2.5 0-3.828-1.64-1.312-1.657-1.312-4.782t1.312-4.781q1.328-1.656 3.828-1.656.703 0 1.344.156.656.156 1.219.453v2.719q-.625-.579-1.219-.844-.594-.281-1.219-.281-1.343 0-2.031 1.078-.687 1.062-.687 3.156t.687 3.172q.688 1.062 2.031 1.062.625 0 1.219-.265.594-.281 1.219-.86z"/><text x="755.46" y="132.57" fill="#D9B8FF" font-family="Helvetica" font-size="17" textLength="238">aws_bedrock_custom_model</text><rect width="310" height="39.789" x="266.46" y="7" fill="#3D176E" rx="2.5" ry="2.5" style="stroke:#000d19;stroke-width:.5"/><circle cx="281.46" cy="26.895" r="11" fill="#ADD1B2" style="stroke:#181818;stroke-width:1"/><path d="M284.429 32.535q-.578.297-1.219.438-.64.156-1.344.156-2.5 0-3.828-1.64-1.312-1.657-1.312-4.782t1.312-4.781q1.328-1.656 3.828-1.656.703 0 1.344.156.656.156 1.219.453v2.719q-.625-.578-1.219-.844-.594-.281-1.219-.281-1.344 0-2.031 1.078-.687 1.062-.687 3.156t.687 3.172q.688 1.062 2.031 1.062.625 0 1.219-.265.594-.281 1.219-.86z"/><text x="300.46" y="32.78" fill="#D9B8FF" font-family="Helvetica" font-size="17" textLength="268">aws_bedrock_foundation_model</text><rect width="370" height="39.789" x="320.46" y="206.58" fill="#3D176E" rx="2.5" ry="2.5" style="stroke:#000d19;stroke-width:.5"/><circle cx="335.46" cy="226.475" r="11" fill="#ADD1B2" style="stroke:#181818;stroke-width:1"/><path d="M338.429 232.115q-.578.297-1.219.438-.64.156-1.344.156-2.5 0-3.828-1.64-1.312-1.657-1.312-4.782t1.312-4.781q1.328-1.656 3.828-1.656.703 0 1.344.156.656.156 1.219.453v2.719q-.625-.578-1.219-.844-.594-.281-1.219-.281-1.344 0-2.031 1.078-.687 1.062-.687 3.156t.687 3.172q.688 1.062 2.031 1.062.625 0 1.219-.265.594-.281 1.219-.86z"/><text x="354.46" y="232.36" fill="#D9B8FF" font-family="Helvetica" font-size="17" textLength="328">aws_bedrock_model_customization_job</text><rect width="245" height="39.789" x="34.96" y="106.79" fill="#3D176E" rx="2.5" ry="2.5" style="stroke:#000d19;stroke-width:.5"/><circle cx="49.96" cy="126.684" r="11" fill="#ADD1B2" style="stroke:#181818;stroke-width:1"/><path d="M52.929 132.325q-.578.297-1.219.438-.64.156-1.344.156-2.5 0-3.828-1.64-1.312-1.657-1.312-4.782t1.312-4.781q1.328-1.656 3.828-1.656.703 0 1.344.156.656.156 1.219.453v2.719q-.625-.579-1.219-.844-.594-.281-1.219-.281-1.343 0-2.031 1.078-.687 1.062-.687 3.156t.687 3.172q.688 1.062 2.031 1.062.625 0 1.219-.265.594-.281 1.219-.86z"/><text x="68.96" y="132.57" fill="#D9B8FF" font-family="Helvetica" font-size="17" textLength="203">aws_ec2_security_group</text><rect width="179" height="39.789" x="314.96" y="106.79" fill="#3D176E" rx="2.5" ry="2.5" style="stroke:#000d19;stroke-width:.5"/><circle cx="329.96" cy="126.684" r="11" fill="#ADD1B2" style="stroke:#181818;stroke-width:1"/><path d="M332.929 132.325q-.578.297-1.219.438-.64.156-1.344.156-2.5 0-3.828-1.64-1.312-1.657-1.312-4.782t1.312-4.781q1.328-1.656 3.828-1.656.703 0 1.344.156.656.156 1.219.453v2.719q-.625-.579-1.219-.844-.594-.281-1.219-.281-1.344 0-2.031 1.078-.687 1.062-.687 3.156t.687 3.172q.688 1.062 2.031 1.062.625 0 1.219-.265.594-.281 1.219-.86z"/><text x="348.96" y="132.57" fill="#D9B8FF" font-family="Helvetica" font-size="17" textLength="137">aws_ec2_subnet</text><rect width="157" height="39.789" x="528.96" y="106.79" fill="#3D176E" rx="2.5" ry="2.5" style="stroke:#000d19;stroke-width:.5"/><circle cx="543.96" cy="126.684" r="11" fill="#ADD1B2" style="stroke:#181818;stroke-width:1"/><path d="M546.929 132.325q-.578.297-1.219.438-.64.156-1.344.156-2.5 0-3.828-1.64-1.312-1.657-1.312-4.782t1.312-4.781q1.328-1.656 3.828-1.656.703 0 1.344.156.656.156 1.219.453v2.719q-.625-.579-1.219-.844-.594-.281-1.219-.281-1.343 0-2.031 1.078-.687 1.062-.687 3.156t.687 3.172q.688 1.062 2.031 1.062.625 0 1.219-.265.594-.281 1.219-.86z"/><text x="562.96" y="132.57" fill="#D9B8FF" font-family="Helvetica" font-size="17" textLength="115">aws_iam_role</text><rect width="158" height="39.789" x="644.46" y="306.37" fill="#3D176E" rx="2.5" ry="2.5" style="stroke:#000d19;stroke-width:.5"/><circle cx="659.46" cy="326.264" r="11" fill="#ADD1B2" style="stroke:#181818;stroke-width:1"/><path d="M662.429 331.905q-.578.297-1.219.438-.64.156-1.344.156-2.5 0-3.828-1.64-1.312-1.657-1.312-4.782t1.312-4.781q1.328-1.656 3.828-1.656.703 0 1.344.156.656.156 1.219.453v2.719q-.625-.579-1.219-.844-.594-.281-1.219-.281-1.343 0-2.031 1.078-.687 1.062-.687 3.156t.687 3.172q.688 1.062 2.031 1.062.625 0 1.219-.265.594-.281 1.219-.86z"/><text x="678.46" y="332.15" fill="#D9B8FF" font-family="Helvetica" font-size="17" textLength="116">aws_kms_key</text><rect width="168" height="39.789" x="421.46" y="306.37" fill="#3D176E" rx="2.5" ry="2.5" style="stroke:#000d19;stroke-width:.5"/><circle cx="436.46" cy="326.264" r="11" fill="#ADD1B2" style="stroke:#181818;stroke-width:1"/><path d="M439.429 331.905q-.578.297-1.219.438-.64.156-1.344.156-2.5 0-3.828-1.64-1.312-1.657-1.312-4.782t1.312-4.781q1.328-1.656 3.828-1.656.703 0 1.344.156.656.156 1.219.453v2.719q-.625-.579-1.219-.844-.594-.281-1.219-.281-1.344 0-2.031 1.078-.687 1.062-.687 3.156t.687 3.172q.688 1.062 2.031 1.062.625 0 1.219-.265.594-.281 1.219-.86z"/><text x="455.46" y="332.15" fill="#D9B8FF" font-family="Helvetica" font-size="17" textLength="126">aws_s3_bucket</text><path fill="none" d="M791.12 147.01c-62.31 17.11-147.024 40.38-209.384 57.51" style="stroke:#1a83af;stroke-width:2"/><path fill="#1A83AF" d="m575.95 206.11 9.738 1.473-4.917-2.797 2.798-4.917z" style="stroke:#1a83af;stroke-width:2"/><path fill="none" d="M847.98 146.99c-26.39 37.77-81.125 116.14-107.545 153.97" style="stroke:#1a83af;stroke-width:2"/><path fill="#1A83AF" d="m737 305.88 8.433-5.088-5.57.989-.99-5.57z" style="stroke:#1a83af;stroke-width:2"/><path fill="none" d="M508.65 47.28c77.04 17.12 182.943 40.658 259.933 57.768" style="stroke:#1a83af;stroke-width:2"/><path fill="#1A83AF" d="m774.44 106.35-7.918-5.857 3.037 4.772-4.772 3.037z" style="stroke:#1a83af;stroke-width:2"/><path fill="none" d="M266.03 38.17C166.05 48.38 49.12 68.35 17.46 106.79c-11.24 13.65-11.46 26.33 0 39.79 38.98 45.79 175.503 64.69 296.533 72.78" style="stroke:#1a83af;stroke-width:2"/><path fill="#1A83AF" d="m319.98 219.76-8.713-4.591 3.724 4.257-4.258 3.725z" style="stroke:#1a83af;stroke-width:2"/><path fill="none" d="M548.53 246.8c38.22 17.14 88.286 39.593 126.476 56.733" style="stroke:#1a83af;stroke-width:2"/><path fill="#1A83AF" d="m680.48 305.99-6.573-7.334 2.011 5.287-5.287 2.011z" style="stroke:#1a83af;stroke-width:2"/><path fill="none" d="M505.46 246.8v53.19" style="stroke:#1a83af;stroke-width:2"/><path fill="#1A83AF" d="m505.46 305.99 4-9-4 4-4-4z" style="stroke:#1a83af;stroke-width:2"/><path fill="none" d="M226.21 147.01c60.91 17.11 143.604 40.347 204.564 57.477" style="stroke:#1a83af;stroke-width:2"/><path fill="#1A83AF" d="m436.55 206.11-7.582-6.286 2.768 4.933-4.933 2.77z" style="stroke:#1a83af;stroke-width:2"/><path fill="none" d="M424.41 147.01c17.71 17.14 39.13 37.876 56.83 55.016" style="stroke:#1a83af;stroke-width:2"/><path fill="#1A83AF" d="m485.55 206.2-3.683-9.134.091 5.656-5.656.09z" style="stroke:#1a83af;stroke-width:2"/><path fill="none" d="M587.31 147.01c-17.89 17.14-39.54 37.897-57.41 55.037" style="stroke:#1a83af;stroke-width:2"/><path fill="#1A83AF" d="m525.57 206.2 9.264-3.343-5.655-.118.117-5.656z" style="stroke:#1a83af;stroke-width:2"/></svg>
